svg/people/bulk-actions.svg

<svg width="16" height="16" viewBox="0 0 16 16" fill="none" xmlns="http://www.w3.org/2000/svg">
<path d="M9.1165 7.483C9.76709 7.483 10.2945 6.95559 10.2945 6.305C10.2945 5.65441 9.76709 5.127 9.1165 5.127C8.46591 5.127 7.9385 5.65441 7.9385 6.305C7.9385 6.95559 8.46591 7.483 9.1165 7.483Z" fill="black"/>
<path d="M13.1155 1.305H5.1155C4.85029 1.305 4.59593 1.41036 4.4084 1.59789C4.22086 1.78543 4.1155 2.03978 4.1155 2.305V10.305C4.1155 10.5702 4.22086 10.8246 4.4084 11.0121C4.59593 11.1996 4.85029 11.305 5.1155 11.305H13.1155C13.3807 11.305 13.6351 11.1996 13.8226 11.0121C14.0101 10.8246 14.1155 10.5702 14.1155 10.305V2.305C14.1155 2.03978 14.0101 1.78543 13.8226 1.59789C13.6351 1.41036 13.3807 1.305 13.1155 1.305ZM11.5155 6.305C11.5149 6.4097 11.5075 6.51425 11.4935 6.618L12.1685 7.146C12.1967 7.16997 12.2159 7.20289 12.2228 7.23929C12.2298 7.27568 12.224 7.31334 12.2065 7.346L11.5665 8.453C11.5481 8.48771 11.5173 8.51419 11.4802 8.52717C11.4431 8.54014 11.4025 8.53866 11.3665 8.523L10.5665 8.203C10.4007 8.33035 10.2192 8.43588 10.0265 8.517L9.9055 9.364C9.90015 9.40163 9.88124 9.436 9.85233 9.46068C9.82343 9.48535 9.7865 9.49862 9.7485 9.498H8.4765C8.43856 9.49881 8.40165 9.48559 8.37286 9.46086C8.34407 9.43612 8.32542 9.40163 8.3205 9.364L8.2005 8.521C8.00722 8.44105 7.82559 8.33543 7.6605 8.207L6.8605 8.527C6.82436 8.54173 6.78409 8.54275 6.74725 8.52985C6.71042 8.51696 6.67957 8.49105 6.6605 8.457L6.0275 7.35C6.00994 7.31728 6.00423 7.27949 6.01134 7.24305C6.01844 7.2066 6.03793 7.17373 6.0665 7.15L6.7405 6.622C6.71117 6.41436 6.71117 6.20364 6.7405 5.996L6.0665 5.468C6.03728 5.44475 6.0173 5.41184 6.01015 5.37519C6.003 5.33853 6.00915 5.30053 6.0275 5.268L6.6675 4.161C6.6859 4.1263 6.71672 4.09981 6.75379 4.08683C6.79087 4.07386 6.83148 4.07535 6.8675 4.091L7.6675 4.411C7.83332 4.28365 8.0148 4.17812 8.2075 4.097L8.3295 3.25C8.33442 3.21237 8.35307 3.17788 8.38186 3.15315C8.41065 3.12841 8.44756 3.11519 8.4855 3.116H9.7555C9.7935 3.11538 9.83043 3.12865 9.85933 3.15332C9.88824 3.178 9.90715 3.21237 9.9125 3.25L10.0335 4.097C10.2268 4.17695 10.4084 4.28257 10.5735 4.411L11.3735 4.091C11.4096 4.07627 11.4499 4.07526 11.4867 4.08815C11.5236 4.10104 11.5544 4.12695 11.5735 4.161L12.2005 5.26C12.218 5.29266 12.2238 5.33032 12.2168 5.36671C12.2099 5.40311 12.1907 5.43603 12.1625 5.46L11.4875 5.988C11.5031 6.09299 11.5117 6.19888 11.5135 6.305H11.5155Z" fill="black"/>
<path d="M3.1145 11.305V4.305H2.1145C1.84929 4.305 1.59493 4.41036 1.4074 4.59789C1.21986 4.78543 1.1145 5.03978 1.1145 5.305V13.305C1.1145 13.5702 1.21986 13.8246 1.4074 14.0121C1.59493 14.1996 1.84929 14.305 2.1145 14.305H10.1145C10.3797 14.305 10.6341 14.1996 10.8216 14.0121C11.0091 13.8246 11.1145 13.5702 11.1145 13.305V12.305H4.1145C3.98318 12.305 3.85314 12.2791 3.73182 12.2289C3.61049 12.1786 3.50025 12.105 3.4074 12.0121C3.31454 11.9192 3.24088 11.809 3.19062 11.6877C3.14037 11.5664 3.1145 11.4363 3.1145 11.305Z" fill="black"/>
</svg>

<svg xmlns="http://www.w3.org/2000/svg" viewBox="0 0 15.229 15.61"><title>bulk-actions</title><g id="Layer_1" data-name="Layer 1"><circle cx="9.116" cy="6.305" r="1.178"/><path d="M13.115,1.305h-8a1,1,0,0,0-1,1v8a1,1,0,0,0,1,1h8a1,1,0,0,0,1-1v-8A1,1,0,0,0,13.115,1.305Zm-1.6,5a2.44,2.44,0,0,1-.022.313l.675.528a.162.162,0,0,1,.038.2l-.64,1.107a.156.156,0,0,1-.2.07l-.8-.32a2.442,2.442,0,0,1-.54.314l-.121.847a.156.156,0,0,1-.157.134H8.476a.154.154,0,0,1-.156-.134L8.2,8.521a2.33,2.33,0,0,1-.54-.314l-.8.32a.16.16,0,0,1-.2-.07L6.027,7.35a.161.161,0,0,1,.039-.2l.674-.528a2.238,2.238,0,0,1,0-.626l-.674-.528a.157.157,0,0,1-.039-.2l.64-1.107a.156.156,0,0,1,.2-.07l.8.32a2.442,2.442,0,0,1,.54-.314l.122-.847a.154.154,0,0,1,.156-.134H9.755a.156.156,0,0,1,.157.134l.121.847a2.33,2.33,0,0,1,.54.314l.8-.32a.16.16,0,0,1,.2.07L12.2,5.26a.162.162,0,0,1-.038.2l-.675.528A2.44,2.44,0,0,1,11.513,6.305Z"/><path d="M3.114,11.305v-7h-1a1,1,0,0,0-1,1v8a1,1,0,0,0,1,1h8a1,1,0,0,0,1-1v-1h-7A1,1,0,0,1,3.114,11.305Z"/></g></svg>
